X:545
T:The Young Woman's Lament
M:C
L:1/8
B:O'Neill's 545
N:"Plaintive" "collected by J. O'Neill"
Z:Transcribed by Dave Wooldridge
K:Dm
AG \
| F2 E>D D3 (A/2G/2) | FEFG A3 D | D2 ^cd fage | d2 c2 A2 z D |
D2 ^c>d d3 (c/2d/2) | f3 e d2 z A | A2 ag f2 AG | F2 E>D D2 ||


